Newaita-dark/actions/24/draw-halfcircle3.svg

<svg height="24" viewBox="0 0 24 24" width="24" xmlns="http://www.w3.org/2000/svg"><g fill="#e0e0e0"><path d="m2.976562 12.09375c0-4.945312 3.984376-8.929688 8.929688-8.929688 4.949219 0 8.933594 3.984376 8.933594 8.929688h-1.988282c0-3.847656-3.097656-6.945312-6.945312-6.945312s-6.945312 3.097656-6.945312 6.945312zm0 0"/><path d="m2.976562 12.09375c0 .550781.445313.992188.992188.992188h15.875c.550781 0 .996094-.441407.996094-.992188 0-.546875-.445313-.992188-.996094-.992188h-15.875c-.546875 0-.992188.445313-.992188.992188zm0 0"/></g></svg>

<svg xmlns="http://www.w3.org/2000/svg" xmlns:xlink="http://www.w3.org/1999/xlink" width="24px" height="24px" viewBox="0 0 24 24" version="1.1">
<g id="surface1">
     <defs>
  <style id="current-color-scheme" type="text/css">
   .ColorScheme-Text { color:#eeeeee; } .ColorScheme-Highlight { color:#424242; }
  </style>
 </defs>
<path style="fill:currentColor" class="ColorScheme-Text" d="M 2.976562 12.09375 C 2.976562 7.148438 6.960938 3.164062 11.90625 3.164062 C 16.855469 3.164062 20.839844 7.148438 20.839844 12.09375 L 18.851562 12.09375 C 18.851562 8.246094 15.753906 5.148438 11.90625 5.148438 C 8.058594 5.148438 4.960938 8.246094 4.960938 12.09375 Z M 2.976562 12.09375 "/>
     <defs>
  <style id="current-color-scheme" type="text/css">
   .ColorScheme-Text { color:#eeeeee; } .ColorScheme-Highlight { color:#424242; }
  </style>
 </defs>
<path style="fill:currentColor" class="ColorScheme-Text" d="M 2.976562 12.09375 C 2.976562 12.644531 3.421875 13.085938 3.96875 13.085938 L 19.84375 13.085938 C 20.394531 13.085938 20.839844 12.644531 20.839844 12.09375 C 20.839844 11.546875 20.394531 11.101562 19.84375 11.101562 L 3.96875 11.101562 C 3.421875 11.101562 2.976562 11.546875 2.976562 12.09375 Z M 2.976562 12.09375 "/>
</g>
</svg>
